X:891
T:Miss Stewart of Grandtully
S:The Athole Collection
Z:Nigel Gatherer
M:4/4
L:1/8
K:A
e | AAcA eAcA | =GGBG dGB=g | AAcA eAcA | Eaef cAA :|
B | Aaga eaca | B=gdg B=GGB | Aaga eaca | faef cAAB |
    Aaga eaca | B=gdg B=GGB | AAcA dBcA | Eaef cAA ||
<end>
<start>
